!!!!SEGMENT: pl-wumfc--n28541--010_moniuszko-stanislaw--verbum-nobile-9-zakonczenie.krn
!!!OTL: Title
!!!cenid: 18xx:4216
!!!COM: Moniuszko, Stanisław
!!!COM-rismID: pe30008351
!!!CDT: 1819/05/05-1872/06/04
!!!CNT: Polish
!!!GTL: Verbum nobile
!!!OTL: 9. Zakończenie
!!!OMV: 010
!!!PDT:
!!!AGN:
!!!SMS-siglum: PL-Wumfc
!!!SMS-shelfmark: N28541
!!!SMS-variant:
!!!SMS-altvar:
!!!SMS-shelfwork: 010-010 G
!!!NIFC-rismSourceID: 1001152972
!!!NIFC-rismChildID: 1001152972
!!!NIFC-islandoraID: pl-wumfc:3225
!!!URL-pdf-islandora: https://repozytorium.nifc.pl/islandora/object/pl-wumfc:3225/datastream/PDF/view
!!!URL-scan: https://polish.musicsources.pl/pl/lokalizacje/galeria/druki-muzyczne/12012/37 @EN{Scan on Polish Music Sources Website} @PL{Skany w portalu Dziedzictwo Muzyki Polskiej w otwartym dostępie}
!!!IIIF:
!!!ONB-nifc: Skany 0037-0039
!!!AIN: 2 piano 2 vox
!!!key:
**kern	**kern	**dynam	**kern	**text	**text	**kern	**text	**text	**text
*part4	*part3	*part3	*part2	*part2	*part2	*part1	*part1	*part1	*part1
*staff4	*staff3	*	*staff2	*staff2	*staff2	*staff1	*staff1	*staff1	*staff1
*I"PIANO.	*I"PIANO.	*	*I"Stanisław.	*	*	*I"Zuzia.	*	*	*
*I'pf	*I'pf	*	*I'[V 2]	*	*	*I'[V 1]	*	*	*
*ICklav	*ICklav	*	*ICvox	*	*	*ICvox	*	*	*
*Ipiano	*Ipiano	*	*Ivox	*	*	*Ivox	*	*	*
*clefF4	*clefG2	*	*clefGv2	*	*	*clefG2	*	*	*
*k[f#c#g#d#a#e#]	*k[f#c#g#d#a#e#]	*	*k[f#c#g#d#a#e#]	*	*	*k[f#c#g#d#a#e#]	*	*	*
*F#:	*F#:	*	*F#:	*	*	*F#:	*	*	*
*M2/4	*M2/4	*	*M2/4	*	*	*M2/4	*	*	*
=1	=1	=1	=1	=1	=1	=1	=1	=1	=1
!	!	!	!	!	!	!LO:TX:a:B:t=Andantino.	!	!	!
[2FF#/ [>2C# [2F#	(16A#/LL	p	2ryy	.	.	4r	.	.	.
.	16c#/	.	.	.	.	.	.	.	.
.	16f#/	.	.	.	.	.	.	.	.
.	16c#/JJ	.	.	.	.	.	.	.	.
.	16A#/LL	.	.	.	.	8cc#\	Ra-	.	.
.	16c#/	.	.	.	.	.	.	.	.
.	16f#/	.	.	.	.	8ff#\	-dość	.	.
.	16c#/JJ	.	.	.	.	.	.	.	.
=2	=2	=2	=2	=2	=2	=2	=2	=2	=2
2FF#/] 2C#] 2F#]	16A#/LL	.	2ryy	.	.	8cc#\	jesz-	.	.
.	16c#/	.	.	.	.	.	.	.	.
.	16f#/	.	.	.	.	16b/LL	-cze	.	.
.	16c#/JJ	.	.	.	.	16a#/JJ	.	.	.
.	16A#/LL	.	.	.	.	8g#/	się	.	.
.	16c#/	.	.	.	.	.	.	.	.
.	16f#/	.	.	.	.	8f#/	od-	.	.
.	16c#/JJ)	.	.	.	.	.	.	.	.
=3	=3	=3	=3	=3	=3	=3	=3	=3	=3
[2FF#/ [>2C# [2F#	(16A#/LL	.	2ryy	.	.	8a#/	-no-	.	.
.	16c#/	.	.	.	.	.	.	.	.
.	16a#/	.	.	.	.	16a#/	-wi	.	.
.	16c#/JJ	.	.	.	.	16r	.	.	.
.	16A#/LL	.	.	.	.	8cc#\	krót-	.	.
.	16c#/	.	.	.	.	.	.	.	.
.	16f#/	.	.	.	.	8ff#\	-ko	.	.
.	16c#/JJ	.	.	.	.	.	.	.	.
!!LO:LB:g=original	!	!	!	!	!	!	!	!	!
=4	=4	=4	=4	=4	=4	=4	=4	=4	=4
4FF#/] 4C#] 4F#]	16A#/LL	.	2ryy	.	.	8cc#\	smu-	.	.
.	16c#/	.	.	.	.	.	.	.	.
.	16f#/	.	.	.	.	16b/LL	-tek	.	.
.	16c#/JJ	.	.	.	.	16a#/JJ	.	.	.
(8C#/L	16A#/LL	.	.	.	.	8g#/	bę-	.	.
.	16c#/	.	.	.	.	.	.	.	.
8F#/J)	16f#/	.	.	.	.	8f#/	-dzie	.	.
.	16c#/JJ)	.	.	.	.	.	.	.	.
=5	=5	=5	=5	=5	=5	=5	=5	=5	=5
(8C#/L	(16A#/LL	.	2ryy	.	.	4cc#\	trwał,	.	.
.	16c#/	.	.	.	.	.	.	.	.
16BB/L	16f#/	.	.	.	.	.	.	.	.
16AA#/JJ	16c#/JJ	.	.	.	.	.	.	.	.
8GG#/L	16f#/LL	.	.	.	.	8cc#\	Oj-	.	.
.	16c#/	.	.	.	.	.	.	.	.
8FF#/J)	16a#/	.	.	.	.	8dd#\	-cze!	.	.
.	16c#/JJ)	.	.	.	.	.	.	.	.
=6	=6	=6	=6	=6	=6	=6	=6	=6	=6
2C#/	(16B/LL	.	2ryy	.	.	8ee#\	tyś	.	.
.	16c#/	.	.	.	.	.	.	.	.
.	16g#/	.	.	.	.	16dd#\LL	Sta-	.	.
.	16c#/JJ	.	.	.	.	16cc#\JJ	.	.	.
.	16B/LL	.	.	.	.	8dd#\	-ni-	.	.
.	16c#/	.	.	.	.	.	.	.	.
.	16g#/	.	.	.	.	8ee#\	-sła-	.	.
.	16c#/JJ	.	.	.	.	.	.	.	.
!!LO:LB:g=original	!	!	!	!	!	!	!	!	!
=7	=7	=7	=7	=7	=7	=7	=7	=7	=7
4F#\	16A#/LL	.	2ryy	.	.	4ff#\	-wo-	.	.
.	16c#/	.	.	.	.	.	.	.	.
.	16f#/ 16a#	.	.	.	.	.	.	.	.
.	16c#/JJ	.	.	.	.	.	.	.	.
4BB/	16d#/LL	.	.	.	.	16dd#\	-wi	.	.
.	16f#/	.	.	.	.	16r	.	.	.
.	16d#/ 16b	.	.	.	.	8ff#\	nie-	.	.
.	16f#/JJ	.	.	.	.	.	.	.	.
=8	=8	=8	=8	=8	=8	=8	=8	=8	=8
4C#/	16A#/LL	.	2ryy	.	.	8.cc#\	-szczęs-	.	.
.	16c#/	.	.	.	.	.	.	.	.
.	16a#/	.	.	.	.	.	.	.	.
.	16f#/JJ	.	.	.	.	32dd#\LLL	-ne	.	.
.	.	.	.	.	.	32cc#\JJJ	.	.	.
4CC#/ 4C#	16B/LL 16g#	.	.	.	.	8b\	ver-	.	.
.	16d#/	.	.	.	.	.	.	.	.
.	16c#/ 16e#	.	.	.	.	8g#/	-bum	.	.
.	16B/JJ	.	.	.	.	.	.	.	.
=9	=9	=9	=9	=9	=9	=9	=9	=9	=9
4FF#/	16A#/LL 16f#	.	2ryy	.	.	8f#/	dał.	.	.
.	16c#/	.	.	.	.	.	.	.	.
.	16f#/	.	.	.	.	8r	.	.	.
.	16en/JJ)	.	.	.	.	.	.	.	.
8BB/L	(>16d#/LL	.	.	.	.	8f#/	O-	.	.
.	16f#/	.	.	.	.	.	.	.	.
8F#/J	16d#/ 16b	.	.	.	.	8b/	-no	.	.
.	16f#/JJ	.	.	.	.	.	.	.	.
!!LO:PB:g=original	!	!	!	!	!	!	!	!	!
=10	=10	=10	=10	=10	=10	=10	=10	=10	=10
2BB\	16d#/LL 16f#	.	2ryy	.	.	8f#/	ni-	.	.
.	16F#</	.	.	.	.	.	.	.	.
.	16B</	.	.	.	.	16e#/LL	-czem	.	.
.	16F#</JJ	.	.	.	.	16d#/JJ	.	.	.
.	16f#/LL	.	.	.	.	8c#/	dla	.	.
.	16F#</	.	.	.	.	.	.	.	.
.	16B/ 16d#	.	.	.	.	8B/	Mi-	.	.
.	16F#</JJ	.	.	.	.	.	.	.	.
=11	=11	=11	=11	=11	=11	=11	=11	=11	=11
8FF#/L	16A#/LL 16f#	.	2ryy	.	.	8f#/	-cha-	.	.
.	16c#/	.	.	.	.	.	.	.	.
8F#/J	16f#/	.	.	.	.	16f#/	-ła,	.	.
.	16en/JJ)	.	.	.	.	16r	.	.	.
8BB/L	(>16d#/LL	.	.	.	.	8f#/	ja	.	.
.	16f#/	.	.	.	.	.	.	.	.
8F#/J	16d#/ 16b	.	.	.	.	8b/	też	.	.
.	16f#/JJ	.	.	.	.	.	.	.	.
=12	=12	=12	=12	=12	=12	=12	=12	=12	=12
2BB\	16dn/LL 16f#	.	2ryy	.	.	(8f#/	Sta-	.	.
.	16F#</	.	.	.	.	.	.	.	.
.	16B</	.	.	.	.	16e#/)	.	.	.
.	16F#</JJ	.	.	.	.	16dn/	-cha	.	.
.	16f#/LL	.	.	.	.	8c#/	nie	.	.
.	16F#</	.	.	.	.	.	.	.	.
.	16d/ 16f#	.	.	.	.	8B/	chcę	.	.
.	16B/JJ)	.	.	.	.	.	.	.	.
!!LO:LB:g=original	!	!	!	!	!	!	!	!	!
=13	=13	=13	=13	=13	=13	=13	=13	=13	=13
(4A#\	16r	.	2ryy	.	.	8c#/	już,	.	.
.	(16c#/LL	.	.	.	.	.	.	.	.
!	!	!	!	!	!	!LO:TX:a:i:t=dolcissimo	!	!	!
.	16f#/	.	.	.	.	8r	.	.	.
.	16c#/JJ	.	.	.	.	.	.	.	.
4C#\) 4A#	16f#/LL 16cc#	.	.	.	.	8cc#\	bym	.	.
.	16c#/	.	.	.	.	.	.	.	.
.	16f#/ 16a#	.	.	.	.	8dd#\	się	.	.
.	16c#/JJ)	.	.	.	.	.	.	.	.
=14	=14	=14	=14	=14	=14	=14	=14	=14	=14
(4G#\	(16e#/LL 16b	.	2ryy	.	.	8ee#\	na-	.	.
.	16c#/	.	.	.	.	.	.	.	.
.	16g#/ 16b	.	.	.	.	16dd#\LL	-dal	.	.
.	16c#/JJ	.	.	.	.	16cc#\JJ	.	.	.
4C#/)	16f#/LL 16b	.	.	.	.	8dd#\	nie	.	.
.	16c#/	.	.	.	.	.	.	.	.
.	16g#/ 16b	.	.	.	.	8ee#\	zmie-	.	.
.	16c#/JJ)	.	.	.	.	.	.	.	.
=15	=15	=15	=15	=15	=15	=15	=15	=15	=15
4F#\	(16f#/LL 16a#	.	2ryy	.	.	4ff#\	-nia-	.	.
.	16c#/	.	.	.	.	.	.	.	.
.	16f#/ 16a#	.	.	.	.	.	.	.	.
.	16e#/JJ	.	.	.	.	.	.	.	.
8BB\L	16d#/LL 16b	.	.	.	.	16dd#\	-ła	.	.
.	16f#/	.	.	.	.	16r	.	.	.
8F#\J	16d#/ 16b	.	.	.	.	8ff#\	niech	.	.
.	16f#/JJ)	.	.	.	.	.	.	.	.
=16	=16	=16	=16	=16	=16	=16	=16	=16	=16
4.C#/	16r	.	2ryy	.	.	8.cc#\	strze-	.	.
.	(16c#/LL	.	.	.	.	.	.	.	.
.	16f#/ 16a#	.	.	.	.	.	.	.	.
.	16e#/JJ	.	.	.	.	32dd#\LLL	-że	.	.
.	.	.	.	.	.	32cc#\JJJ	.	.	.
.	16d#/LL 16b	.	.	.	.	8b\	A-	.	.
.	16f#/	.	.	.	.	.	.	.	.
8B\	16e#/ 16g#	.	.	.	.	8g#/	-nioł	.	.
.	16c#/JJ)	.	.	.	.	.	.	.	.
!!LO:LB:g=original	!	!	!	!	!	!	!	!	!
=17	=17	=17	=17	=17	=17	=17	=17	=17	=17
(4A#\	16r	.	2ryy	.	.	(8dd#\L	Stróż!	.	.
.	(16c#/LL	.	.	.	.	.	.	.	.
.	16f#/ 16cc#	.	.	.	.	8cc#\J)	.	.	.
.	16c#/JJ)	.	.	.	.	.	.	.	.
4An\	16r	.	.	.	.	8.cc#\	bym	.	.
.	(16c#/LL	.	.	.	.	.	.	.	.
.	16f#/ 16cc#	.	.	.	.	.	.	.	.
.	16c#/JJ)	.	.	.	.	16cc##X\	się	.	.
=18	=18	=18	=18	=18	=18	=18	=18	=18	=18
4G#\	16r	.	2ryy	.	.	8dd#\	na-	.	.
.	(16d#/LL	.	.	.	.	.	.	.	.
.	.	.	.	.	.	8qdd#/	.	.	.
.	16f#/ 16b#X	.	.	.	.	16cc#\LL	-dal	.	.
.	16d#/JJ)	.	.	.	.	16cc##X\JJ	.	.	.
4C#/	16r	.	.	.	.	8dd#\	nie	.	.
.	(16c#/LL	.	.	.	.	.	.	.	.
.	16g#/ 16bn	.	.	.	.	8ee#\	zmie-	.	.
.	16c#/JJ)	.	.	.	.	.	.	.	.
=19	=19	=19	=19	=19	=19	=19	=19	=19	=19
!	!LO:TX:a:i:t=colla parte	!	!	!	!	!LO:TX:a:i:t=ad lib.	!	!	!
8F#/L)	8f#/L 8a#	.	2ryy	.	.	(8ff#\L	-nia-	.	.
8AA#/	8c##X/ 8f# 8a#	<	.	.	.	8aa#\J	.	.	.
8BB/	8d#/ 8g#	.	.	.	.	16gg#\)	.	.	.
.	.	.	.	.	.	16ff#\	-ła	.	.
8BB#X/J	8d#/J 8f# 8g##X	.	.	.	.	16ee#\	niech	.	.
.	.	[[	.	.	.	16ff#\	mię	.	.
!!LO:LB:g=original	!	!	!	!	!	!	!	!	!
=20	=20	=20	=20	=20	=20	=20	=20	=20	=20
[>4C#;/	4c#;/ 4f# 4a#	.	2ryy	.	.	(8.ff#;\	strze-	.	.
.	.	.	.	.	.	16a#/)	-że	.	.
4CC#;/ 4C#_	4B;/ 4e# 4g#	.	.	.	.	8.cc#;\	A-	.	.
.	.	.	.	.	.	32b/LLL	-nioł	.	.
.	.	.	.	.	.	32g#/JJJ	.	.	.
=21	=21	=21	=21	=21	=21	=21	=21	=21	=21
!	!	!	!	!	!	!LO:TX:a:B:t=a tempo	!	!	!
8FF#/ 8C#]	8A#/ 8f#	.	2ryy	.	.	8f#/	Stróż!	.	.
16r	16r	f	.	.	.	8r	.	.	.
16F#\ 16f#	16a#\ 16cc# 16ff#	.	.	.	.	.	.	.	.
16F#\KL 16f#	16a#\KL 16cc# 16ff#	.	.	.	.	4r	.	.	.
32rE	32r	.	.	.	.	.	.	.	.
32Fn\KL 32fn	32b\KL 32ddn 32ggn	.	.	.	.	.	.	.	.
16F\J 16f	16b\J 16dd 16gg	.	.	.	.	.	.	.	.
32rE	32r	.	.	.	.	.	.	.	.
32En\Jkk 32en	32b\Jkk 32dd 32gg#X	.	.	.	.	.	.	.	.
=22	=22	=22	=22	=22	=22	=22	=22	=22	=22
8En\ 8en	8b\ 8ddn 8gg#	.	2ryy	.	.	2r	.	.	.
16r	16r	.	.	.	.	.	.	.	.
16AAn^^\ 16E 16An	16cc#^^\ 16een 16aan	.	.	.	.	.	.	.	.
16AA^^\LL 16E 16A	16ee^^\LL 16ggn 16aa#X	.	.	.	.	.	.	.	.
16AA^^\ 16E 16A	16ee^^\ 16gg 16bb	.	.	.	.	.	.	.	.
16AA^^\ 16E 16A	16ee^^\ 16gg 16bb#X	.	.	.	.	.	.	.	.
16AA^^\JJ 16A	16ee^^\JJ 16gg 16ccc#	.	.	.	.	.	.	.	.
!!LO:PB:g=original	!	!	!	!	!	!	!	!	!
*kcancel	*kcancel	*	*kcancel	*	*	*kcancel	*	*	*
=23||	=23||	=23||	=23||	=23||	=23||	=23||	=23||	=23||	=23||
*k[f#c#]	*k[f#c#]	*	*k[f#c#]	*	*	*k[f#c#]	*	*	*
*D:	*D:	*	*D:	*	*	*D:	*	*	*
!	!	!	!	!	!	!LO:TX:a:B:t=Allegro.	!	!	!
8DD\L 8D	8dd\ 8ff# 8ddd	fp	2ryy	.	.	2r	.	.	.
8F#\J 8A 8d	8r	.	.	.	.	.	.	.	.
8D'\	8r	.	.	.	.	.	.	.	.
8r	8A'/ 8d 8f#	.	.	.	.	.	.	.	.
=24	=24	=24	=24	=24	=24	=24	=24	=24	=24
8D'\	8r	.	2ryy	.	.	2r	.	.	.
8r	8A'/ 8d 8f#	.	.	.	.	.	.	.	.
8D'\	8r	.	.	.	.	.	.	.	.
8r	8A'/ 8d 8f#	.	.	.	.	.	.	.	.
=25	=25	=25	=25	=25	=25	=25	=25	=25	=25
8D\	8r	.	2ryy	.	.	8a/	Za-	.	.
8r	8A/ 8d 8f#	.	.	.	.	8dd\	-koń-	.	.
8D\	8r	.	.	.	.	8.dd\	-czo-	.	.
8r	8A/ 8d 8f#	.	.	.	.	.	.	.	.
.	.	.	.	.	.	16cc#\	-ne	.	.
=26	=26	=26	=26	=26	=26	=26	=26	=26	=26
8E\	8r	.	2ryy	.	.	8b\	na-	.	.
8r	8A/ 8c# 8g	.	.	.	.	8a/	-sze	.	.
8AA/	8r	.	.	.	.	8b\	tro-	.	.
8r	8A/ 8e 8g	.	.	.	.	8cc#\	-ski,	.	.
!!LO:LB:g=original	!	!	!	!	!	!	!	!	!
=27	=27	=27	=27	=27	=27	=27	=27	=27	=27
8D\	8r	.	2ryy	.	.	8dd\	znik-	.	.
8r	8A/ 8d 8f#	.	.	.	.	8ff#\	-ły	.	.
8BB'/L	8r	.	.	.	.	8ee\	nam	.	.
8EE'/J	8G#X/ 8d 8e	.	.	.	.	8dd\	cier-	.	.
=28	=28	=28	=28	=28	=28	=28	=28	=28	=28
(4AA/	8r	.	2ryy	.	.	16cc#\LL	-pie-	.	.
.	.	.	.	.	.	16b\JJ	.	.	.
.	8A/ 8c# 8e	.	.	.	.	4a/	-nia,	.	.
4GG/	8r	.	.	.	.	.	.	.	.
.	8A/ 8c# 8e 8a	.	.	.	.	8r	.	.	.
=29	=29	=29	=29	=29	=29	=29	=29	=29	=29
8FF#/)	8r	.	2ryy	.	.	8a/	bo	.	.
8r	8A/ 8d 8a	.	.	.	.	8ff#\	je	.	.
8D\	8r	.	.	.	.	8.ff#^\	na-	.	.
8r	8A/ 8d 8f#	.	.	.	.	.	.	.	.
.	.	.	.	.	.	16cc#\	-gle	.	.
!!LO:LB:g=original	!	!	!	!	!	!	!	!	!
=30	=30	=30	=30	=30	=30	=30	=30	=30	=30
8GG/	8r	.	2ryy	.	.	8ee\	wy-	.	.
8r	8G/ 8B 8d	.	.	.	.	8dd\	-rok	.	.
8EE/ 8E	8r	.	.	.	.	8cc#\	boz-	.	.
8r	8G/ 8B 8g	.	.	.	.	8b\	-ki	.	.
=31	=31	=31	=31	=31	=31	=31	=31	=31	=31
8AA/	8r	.	2ryy	.	.	8cc#\	na	.	.
8r	8A/ 8e 8g	.	.	.	.	8a/	po-	.	.
8AA\L	4r	.	.	.	.	8b\	-cie-	.	.
8G\J 8A 8e	.	.	.	.	.	8cc#\	-chę	.	.
=32	=32	=32	=32	=32	=32	=32	=32	=32	=32
8D\L	(16dd^\LL	.	2ryy	.	.	8dd\	zmie-	.	.
.	16ff#\J	.	.	.	.	.	.	.	.
8F#\J 8A 8d	8aa'\J)	.	.	.	.	8a/	-nia.	.	.
8AA\L	(16ee^\LL	.	.	.	.	4r	.	.	.
.	16cc#\J	.	.	.	.	.	.	.	.
8E\J 8c#	8a'\J)	.	.	.	.	.	.	.	.
!!LO:LB:g=original	!	!	!	!	!	!	!	!	!
=33	=33	=33	=33	=33	=33	=33	=33	=33	=33
8D\L	8a/L	.	2ryy	.	.	8a/	Znik-	.	.
8F#\J 8A	8d/J 8f# 8dd	.	.	.	.	8dd\	-ły,	.	.
8D\	8r	.	.	.	.	8.dd\	znik-	.	.
8r	8A/ 8d 8f#	.	.	.	.	.	.	.	.
.	.	.	.	.	.	16cc#\	-ły	.	.
=34	=34	=34	=34	=34	=34	=34	=34	=34	=34
8AA/	8r	.	2ryy	.	.	8b\	ja-	.	.
8r	8A/ 8e 8g	.	.	.	.	8a/	-ko	.	.
8AA/	8r	.	.	.	.	8b\	ma-	.	.
8r	8A/ 8e 8g	.	.	.	.	8cc#\	-ra	.	.
=35	=35	=35	=35	=35	=35	=35	=35	=35	=35
8BB/	8r	.	2ryy	.	.	8dd\	na	.	.
8r	8d/ 8f#	.	.	.	.	8ff#\	lat	.	.
8E\	8r	.	.	.	.	8ee\	dłu-	.	.
8r	8B/ 8e 8g#X	.	.	.	.	8dd\	-gich	.	.
!!LO:PB:g=original	!	!	!	!	!	!	!	!	!
=36	=36	=36	=36	=36	=36	=36	=36	=36	=36
8AA\ 8A	8r	.	2ryy	.	.	16cc#\LL	wie-	.	.
.	.	.	.	.	.	16b\JJ	.	.	.
8r	8c#/ 8e 8a	.	.	.	.	4a/	-le,	.	.
8C#/	8r	.	.	.	.	.	.	.	.
8r	8e/ 8gn 8a	.	.	.	.	8r	.	.	.
=37	=37	=37	=37	=37	=37	=37	=37	=37	=37
8D\	8r	.	2ryy	.	.	8a/	w Pa-	.	.
8r	8d/ 8f# 8a	.	.	.	.	8ff#\	-nu	.	.
8D\	8r	.	.	.	.	8.ff#\	Bo-	.	.
8r	8d/ 8f# 8a	.	.	.	.	.	.	.	.
.	.	.	.	.	.	16cc#\	-gu	.	.
=38	=38	=38	=38	=38	=38	=38	=38	=38	=38
8G\	8r	.	2ryy	.	.	8ee\	na-	.	.
8r	8d/ 8e 8b	.	.	.	.	8dd\	-sza	.	.
8GG/	8r	.	.	.	.	8cc#\	wia-	.	.
8r	8B/ 8e 8g	.	.	.	.	8b\	-ra	.	.
!!LO:LB:g=original	!	!	!	!	!	!	!	!	!
=39	=39	=39	=39	=39	=39	=39	=39	=39	=39
2AA/	8r	.	2ryy	.	.	8cc#\	po-	.	.
.	8A'/L 8c# 8g	.	.	.	.	8a/	-trwa	.	.
.	8A'/ 8d 8g	.	.	.	.	8b\	nam	.	.
.	8A'/J 8e 8g	.	.	.	.	8cc#\	we-	.	.
=40	=40	=40	=40	=40	=40	=40	=40	=40	=40
*^	*	*	*	*	*	*	*	*	*
8rc	2D\	8A'/ 8f#	.	2ryy	.	.	8ee\	-se-	.	.
8F#/L 8A 8d	.	8r	.	.	.	.	8dd\	-le.	.	.
8F#/ 8A 8d	.	(16ff#\LL	.	.	.	.	4r	.	.	.
.	.	16aa\	.	.	.	.	.	.	.	.
8F#/J 8A 8d	.	16ff#\	.	.	.	.	.	.	.	.
.	.	16dd\JJ)	.	.	.	.	.	.	.	.
=41	=41	=41	=41	=41	=41	=41	=41	=41	=41	=41
8rc	2D\	8a'/L	.	2ryy	.	.	2r	.	.	.
8F#/L 8A 8d	.	8a'/J	.	.	.	.	.	.	.	.
8F#/ 8A 8d	.	(16ff#\LL	.	.	.	.	.	.	.	.
.	.	16aa\	.	.	.	.	.	.	.	.
8F#/J 8A 8d	.	16ff#\	.	.	.	.	.	.	.	.
.	.	16dd\JJ)	.	.	.	.	.	.	.	.
=42	=42	=42	=42	=42	=42	=42	=42	=42	=42	=42
8rc	2D\	8a'/L	.	2ryy	.	.	2r	.	.	.
8F#/L 8A 8d	.	8a'/J	.	.	.	.	.	.	.	.
8F#/ 8A 8d	.	(16ff#\LL	.	.	.	.	.	.	.	.
.	.	16aa\	.	.	.	.	.	.	.	.
8F#/J 8A 8d	.	16ff#\	.	.	.	.	.	.	.	.
.	.	16dd\JJ)	.	.	.	.	.	.	.	.
*v	*v	*	*	*	*	*	*	*	*	*
!!LO:LB:g=original	!	!	!	!	!	!	!	!	!
=43	=43	=43	=43	=43	=43	=43	=43	=43	=43
8F#\L	8a'/	.	2ryy	.	.	2r	.	.	.
8A\J 8d	(16b\LL	.	.	.	.	.	.	.	.
.	16cc#\JJ	.	.	.	.	.	.	.	.
.	8qee/	.	.	.	.	.	.	.	.
8D\L	16dd\LL	.	.	.	.	.	.	.	.
.	16cc#\	.	.	.	.	.	.	.	.
8F#\J 8A 8d	16dd\	.	.	.	.	.	.	.	.
.	16dd#X\JJ	.	.	.	.	.	.	.	.
=44	=44	=44	=44	=44	=44	=44	=44	=44	=44
(8G^\L	4ee\)	.	2ryy	.	.	2r	.	.	.
16F#\L	.	.	.	.	.	.	.	.	.
16E\JJ)	.	.	.	.	.	.	.	.	.
8D#X\L	(16bb\LL	.	.	.	.	.	.	.	.
.	16cccn\	.	.	.	.	.	.	.	.
8F#\J 8A 8B	16bb\	.	.	.	.	.	.	.	.
.	16aa\JJ)	.	.	.	.	.	.	.	.
=45	=45	=45	=45	=45	=45	=45	=45	=45	=45
8E\L	8gg'\L	.	2ryy	.	.	2r	.	.	.
8G\J 8B	8b'\J 8ee 8gg	.	.	.	.	.	.	.	.
8AA#X\L	(16ff#\LL	.	.	.	.	.	.	.	.
.	16gg\	.	.	.	.	.	.	.	.
8F#\J 8c#	16ff#\	.	.	.	.	.	.	.	.
.	16ee\JJ	.	.	.	.	.	.	.	.
=46	=46	=46	=46	=46	=46	=46	=46	=46	=46
8BB\L	16dd\LL	.	2ryy	.	.	2r	.	.	.
.	16cc#\	.	.	.	.	.	.	.	.
8F#\J 8B	16b\	.	.	.	.	.	.	.	.
.	16cc#\JJ	.	.	.	.	.	.	.	.
8GG\L	16dd\LL	.	.	.	.	.	.	.	.
.	16cc#\	.	.	.	.	.	.	.	.
8D\J 8B	16dd\	.	.	.	.	.	.	.	.
.	16ee\JJ	.	.	.	.	.	.	.	.
!!LO:LB:g=original	!	!	!	!	!	!	!	!	!
=47	=47	=47	=47	=47	=47	=47	=47	=47	=47
8AA\L	16ff#\LL	.	2ryy	.	.	2r	.	.	.
.	16ee\	.	.	.	.	.	.	.	.
8D\J 8A	16ff#\	.	.	.	.	.	.	.	.
.	16gg\JJ)	.	.	.	.	.	.	.	.
8AA\L	16aa'\LL	.	.	.	.	.	.	.	.
.	16gg'\ 16aa#X	.	.	.	.	.	.	.	.
8E\J 8A	16gg'\ 16bb	.	.	.	.	.	.	.	.
.	16gg'\JJ 16ccc#	.	.	.	.	.	.	.	.
=48	=48	=48	=48	=48	=48	=48	=48	=48	=48
8D'\ 8A	8ff#'\ 8ddd	.	2ryy	.	.	2r	.	.	.
8r	8r	.	.	.	.	.	.	.	.
.	8qeee#X/	.	.	.	.	.	.	.	.
4f#\	4ff#\ 4fff#	sf	.	.	.	.	.	.	.
=49	=49	=49	=49	=49	=49	=49	=49	=49	=49
*^	*	*	*	*	*	*	*	*	*
8rG	2BB\	8r	p	8F#/	.	Za-	2ryy	.	.	.
8F#'</L	.	8d'/L 8f# 8dd	.	8d\	.	-koń-	.	.	.	.
8F#'</	.	8d'/ 8f# 8cc#	.	8c#\	.	-czo-	.	.	.	.
8F#'</J	.	8d'/J 8f# 8b	.	8B\	.	-ne	.	.	.	.
=50	=50	=50	=50	=50	=50	=50	=50	=50	=50	=50
8rG	2BB\	8r	.	8B\	.	tro-	2ryy	.	.	.
8F#/L	.	8c#/L 8e 8a#X	.	8A#X/	.	-ski,	.	.	.	.
8F#/	.	8c#/ 8e 8a#	.	4r	.	.	.	.	.	.
8F#/J	.	8c#/J 8e 8a#	.	.	.	.	.	.	.	.
!!LO:PB:g=original	!	!	!	!	!	!	!	!	!	!
=51	=51	=51	=51	=51	=51	=51	=51	=51	=51	=51
8rG	2BB\	8r	.	8An/	.	znik-	2ryy	.	.	.
.	.	.	.	8qB/	.	.	.	.	.	.
8F#/L	.	8cn/L 8e 8an	.	16A/LL	.	-ły	.	.	.	.
.	.	.	.	16G/JJ	.	.	.	.	.	.
8F#/	.	8c/ 8e 8a	.	8A/	.	nam	.	.	.	.
8F#/J	.	8B/J 8d#X 8a	.	8B/	.	cier-	.	.	.	.
*v	*v	*	*	*	*	*	*	*	*	*
=52	=52	=52	=52	=52	=52	=52	=52	=52	=52
4EE/ 4E	8r	.	4A/	.	-pie-	2ryy	.	.	.
.	8B/L 8e 8a	.	.	.	.	.	.	.	.
4r	8B/ 8e 8g	.	8G/	.	-nia,	.	.	.	.
.	8B/J 8e 8g	.	8r	.	.	.	.	.	.
=53	=53	=53	=53	=53	=53	=53	=53	=53	=53
*^	*	*	*	*	*	*	*	*	*
[2F#/	4AA#X\	8r	.	8F#/	.	bo	2ryy	.	.	.
.	.	8c#/ 8e 8f#	.	8A#X/	.	je	.	.	.	.
.	4FF#\	8r	.	8c#\	.	wy-	.	.	.	.
.	.	8A#X/ 8c# 8f#	.	8e\	.	-rok	.	.	.	.
=54	=54	=54	=54	=54	=54	=54	=54	=54	=54	=54
4F#/]	4BB\	8r	.	4.d\	.	boz-	2ryy	.	.	.
.	.	8B/ 8d 8f#	.	.	.	.	.	.	.	.
4G/	4GG\	8r	.	.	.	.	.	.	.	.
.	.	8B/ 8d 8g 8b	.	8d\	.	-ki	.	.	.	.
*v	*v	*	*	*	*	*	*	*	*	*
!!LO:LB:g=original	!	!	!	!	!	!	!	!	!
=55	=55	=55	=55	=55	=55	=55	=55	=55	=55
8EE/ 8E	8r	.	8.c#\	.	na	2ryy	.	.	.
8r	8c#X/ 8g 8b	.	.	.	.	.	.	.	.
.	.	.	16B\	.	po-	.	.	.	.
8FF#/ 8F#	8r	.	8A#X/	.	-cie-	.	.	.	.
8r	8c#/ 8f# 8a#X	.	8c#\	.	-chę	.	.	.	.
=56	=56	=56	=56	=56	=56	=56	=56	=56	=56
(4BB/	8r	.	4B\	.	zmie-	2ryy	.	.	.
.	8d/ 8f# 8b	.	.	.	.	.	.	.	.
8C#/)	8r	.	8An/	.	-nia.	.	.	.	.
8r	8An/ 8e 8an	.	8r	.	.	.	.	.	.
=57	=57	=57	=57	=57	=57	=57	=57	=57	=57
(2DD/ 2D	8r	.	2ryy	.	.	8a/	.	.	Zni-
.	8A/L 8d 8f# 8a	.	.	.	.	8ff#\	.	.	-kły
.	8A/ 8d 8f# 8a	.	.	.	.	8ee\	.	.	ja-
.	8A/J 8d 8f# 8a	.	.	.	.	8dd\	.	.	-ko
=58	=58	=58	=58	=58	=58	=58	=58	=58	=58
2EE/ 2E	8r	.	2ryy	.	.	8dd\	.	.	ma-
.	8A/L 8c# 8g 8a	.	.	.	.	4cc#\	.	.	-ra
.	8A/ 8c# 8g 8a	.	.	.	.	.	.	.	.
.	8A/J 8c# 8g 8a	.	.	.	.	8r	.	.	.
!!LO:LB:g=original	!	!	!	!	!	!	!	!	!
=59	=59	=59	=59	=59	=59	=59	=59	=59	=59
4FF#/ 4F#	8r	.	2ryy	.	.	8.dd^\	.	.	na
.	8d/ 8a	.	.	.	.	.	.	.	.
.	.	.	.	.	.	16cc#\	.	.	lat
4GG#X/ 4G#X	8r	.	.	.	.	8b\	.	.	dłu-
.	8B/ 8d 8b	.	.	.	.	8ff#\	.	.	-gich
=60	=60	=60	=60	=60	=60	=60	=60	=60	=60
4AA/ 4A	8r	.	2ryy	.	.	16ee\LL	.	.	wie-
.	.	.	.	.	.	16cc#\JJ	.	.	.
.	8c#/ 8a	.	.	.	.	8a/	.	.	-le,
4GGn/ 4Gn	8r	.	.	.	.	4r	.	.	.
.	8c#/ 8e 8a	.	.	.	.	.	.	.	.
=61	=61	=61	=61	=61	=61	=61	=61	=61	=61
8FF#/) 8F#	8d/L 8a	.	2ryy	.	.	8a/	.	.	w Pa-
8r	8d/J 8g 8dd	.	.	.	.	8dd\	.	.	-nu
(4D/	8r	.	.	.	.	8ff#\	.	.	Bo-
.	8a\ 8dd 8ff#	.	.	.	.	8aa\	.	.	-gu
=62	=62	=62	=62	=62	=62	=62	=62	=62	=62
4BB/	8r	.	2ryy	.	.	(4gg#X\	.	.	wia-
.	8g#X\ 8dd 8ee	.	.	.	.	.	.	.	.
4BB-X/	8r	.	.	.	.	8dd\)	.	.	.
.	8gn\ 8dd 8ee	.	.	.	.	8ee\	.	.	-ra
!!LO:LB:g=original	!	!	!	!	!	!	!	!	!
=63	=63	=63	=63	=63	=63	=63	=63	=63	=63
8AA/)	8f#/ 8a 8dd	.	2ryy	.	.	8ff#\L	.	.	po-
.	.	.	.	.	.	16qqgg/L	.	.	.
.	.	.	.	.	.	16qqff#/J	.	.	.
8r	8r	.	.	.	.	16ee\Jk	.	.	.
.	.	.	.	.	.	16ff#\	.	.	-trwa
(<[4A;\	(<4e^;/ (>4g (>4cc#	.	.	.	.	8.gg;\	.	.	nam
.	.	.	.	.	.	16cc#\	.	.	we-
=64	=64	=64	=64	=64	=64	=64	=64	=64	=64
8D\) 8A]	8d/) 8f#) 8dd)	.	2ryy	.	.	8dd\	.	.	-se-
8r	8r	.	.	.	.	8dd\	.	.	-le.
8D\L 8F# 8A 8d	(16aa\LL 16fff#	ff	.	.	.	4r	.	.	.
.	16aaa\	.	.	.	.	.	.	.	.
8D\J 8F# 8A 8d	16fff#\	.	.	.	.	.	.	.	.
.	16ddd\JJ	.	.	.	.	.	.	.	.
=65	=65	=65	=65	=65	=65	=65	=65	=65	=65
8D\L 8F# 8A 8d	16aa\LL	.	2ryy	.	.	2r	.	.	.
.	16fff#\	.	.	.	.	.	.	.	.
8D\ 8F# 8A 8d	16ddd\	.	.	.	.	.	.	.	.
.	16aa\JJ	.	.	.	.	.	.	.	.
8D\ 8F# 8A 8d	16ff#\LL	.	.	.	.	.	.	.	.
.	16ddd\	.	.	.	.	.	.	.	.
8D\J 8F# 8A 8d	16aa\	.	.	.	.	.	.	.	.
.	16ff#\JJ	.	.	.	.	.	.	.	.
=66	=66	=66	=66	=66	=66	=66	=66	=66	=66
8D\ 8F# 8A 8d	8dd\)	.	2ryy	.	.	2r	.	.	.
8r	8r	.	.	.	.	.	.	.	.
4DD/ 4AA 4D	4dd\ 4ff# 4ddd	.	.	.	.	.	.	.	.
==	==	==	==	==	==	==	==	==	==
*-	*-	*-	*-	*-	*-	*-	*-	*-	*-
!!!system-decoration: s1,s2{(s3,s4)}
!!!RDF**kern: > = above
!!!RDF**kern: < = below
!!!ENC: Arek Malec
!!!END: 3-10-2022
!!!ENC: Natalia Wrzos
!!!END: 2022-11-01
!!!YEC: Copyright 2022 Narodowy Instytut Fryderyka Chopina (https://polishscores.org)
!!!YEM: License CC-BY-4.0 (https://creativecommons.org/licenses/by/4.0)
